X:44
T:Miss Mary Garden (Delgaty's) Reel
C:R. Petrie
S:Petrie's Second Collection of Strathspey Reels and Country Dances &c.
Z:Steve Wyrick , 6/11/04
N:Petrie's Second Collection, page 15
L:1/8
M:C
R:Reel
K:D
 f|eAcA     aAcA|Bgdg BGdB| eAcA    aecA|dfed cAAf |
   eAcA     aAcA|Bgdg BGdB| AAcA    dBcA|afea cAA ||
^g|(Ta^ga)e ceaf|gfgd BGdB|(Ta^ga)e ceaf|gdBe cAA^g|
   (Ta^ga)e ceaf|gfgd BGdB| cAdB    ecaf|gdBe cAA |]
